X: 25427
T: March To Victory, The
R: polka
M: 2/4
K: Gmajor
|GG/G/ GG|GG A2|d4|BG/G/ GG|
A/G/F/G/ A2|D4|cA/A/ AA|B2 cA/A/|
cA FA|cA/A/ cA|FA G2|GD DD|
G2 G2|A/B/A/G/ FD|d/e/d/c/ Bd|G2 AB|
c>B cG|E2 FG|A>B AG|FD E/D/E/F/
G2 G2|A2 A2|d2 d>B|G2 AB|
c>B AG|F2 EF|A2 G2|GD DD|
G2 G2|A2 A2|de dB|G2 AB|
c>B cG|E2 FG|A>B AG|FD E/D/E/F/
G2 G2|A2 A2|d>e d>B|G2 AB|
c>B AG|F2 EF|A2 G2|G4||

